images/checkout/sber.svg

<svg width="30" height="28" viewBox="0 0 30 28" fill="none" xmlns="http://www.w3.org/2000/svg">
<path d="M20.1102 0.22168L8.86925 6.69948L3.85954 3.81268C3.50208 4.20705 3.16635 4.62067 2.85382 5.05168L8.86925 8.51878L21.8073 1.06168C21.271 0.74668 20.7143 0.46668 20.1381 0.22168H20.1102ZM8.86925 10.3367L1.99897 6.37468C1.73916 6.82968 1.50309 7.30078 1.29357 7.78728L8.86925 12.1525L24.5291 3.12948C24.1285 2.74209 23.7059 2.37819 23.2635 2.03958L8.86925 10.336V10.3367ZM8.86925 13.9725L0.73973 9.28598C0.580491 9.80538 0.450587 10.336 0.350015 10.8799L8.86925 15.7911L26.5705 5.58648C26.2789 5.1454 25.9642 4.72013 25.6277 4.31248L8.86925 13.9725ZM8.86925 17.6097L0.139095 12.5753C0.12373 12.7993 0.112555 13.0233 0.107666 13.2501V13.8577C0.276682 21.6921 6.66786 27.9935 14.5264 27.9935C22.4918 27.9935 28.9486 21.5213 28.9486 13.5406C28.9486 11.1648 28.3773 8.92408 27.3653 6.94658L8.86925 17.6097Z" fill="#299F34"/>
</svg>

<svg width="30" height="28" fill="none" xmlns="http://www.w3.org/2000/svg"><path d="M20.11.222L8.87 6.699 3.86 3.813c-.358.394-.694.808-1.006 1.239l6.015 3.467 12.938-7.457a14.48 14.48 0 00-1.669-.84h-.028zM8.87 10.337L1.998 6.375c-.26.455-.496.926-.705 1.412l7.575 4.365L24.53 3.13c-.4-.387-.823-.75-1.265-1.09L8.869 10.337zm0 3.636L.74 9.285c-.16.52-.29 1.05-.39 1.594l8.52 4.911 17.7-10.205a14.968 14.968 0 00-.942-1.274l-16.759 9.66zm0 3.637L.14 12.575a14.36 14.36 0 00-.032.675v.608c.169 7.834 6.56 14.136 14.418 14.136 7.966 0 14.423-6.473 14.423-14.453a14.43 14.43 0 00-1.584-6.594L8.87 17.61z" fill="#299F34"/></svg>
